public/images/hashed/e5eb5f9b0c101b3f2f3f508c78910a69.svg

<?xml version="1.0" encoding="UTF-8"?>
<svg width="80px" height="80px" viewBox="0 0 80 80" version="1.1" xmlns="http://www.w3.org/2000/svg" xmlns:xlink="http://www.w3.org/1999/xlink">
    <!-- Generator: Sketch 64 (93537) - https://sketch.com -->
    <title>Icon-Architecture/64/Arch_AWS-Outposts_64</title>
    <desc>Created with Sketch.</desc>
    <defs>
        <linearGradient x1="0%" y1="100%" x2="100%" y2="0%" id="linearGradient-1">
            <stop stop-color="#C8511B" offset="0%"></stop>
            <stop stop-color="#FF9900" offset="100%"></stop>
        </linearGradient>
    </defs>
    <g id="Icon-Architecture/64/Arch_AWS-Outposts_64" stroke="none" stroke-width="1" fill="none" fill-rule="evenodd">
        <g id="Icon-Architecture-BG/64/Compute" fill="url(#linearGradient-1)">
            <rect id="Rectangle" x="0" y="0" width="80" height="80"></rect>
        </g>
        <path d="M53.0046805,29.3343049 C53.0046805,28.9676479 53.0046805,28.5920723 52.985725,28.3611775 C52.7532703,28.3433401 52.3751572,28.3433401 52.0070208,28.3433401 L38.0397845,28.3433401 C37.671648,28.3433401 37.293535,28.3433401 37.0610802,28.3611775 C37.0421247,28.5920723 37.0421247,28.9676479 37.0421247,29.3343049 L37.0421247,60.0542116 C37.0421247,60.4208686 37.0421247,60.7964442 37.0610802,61.027339 C37.293535,61.0451763 37.671648,61.0451763 38.0397845,61.0451763 L42.0304234,61.0451763 L48.0163818,61.0451763 L52.0070208,61.0451763 C52.3751572,61.0451763 52.7532703,61.0451763 52.985725,61.027339 C53.0046805,60.7964442 53.0046805,60.4208686 53.0046805,60.0542116 L53.0046805,29.3343049 Z M49.0140416,64.0180705 L51.009361,64.0180705 L51.009361,63.0271058 L49.0140416,63.0271058 L49.0140416,64.0180705 Z M39.0374442,64.0180705 L41.0327637,64.0180705 L41.0327637,63.0271058 L39.0374442,63.0271058 L39.0374442,64.0180705 Z M55,29.3343049 L55,60.0542116 C55,62.2026231 54.662791,62.8408044 53.0046805,62.9854853 L53.0046805,65.0090353 C53.0046805,65.5560478 52.5587266,66 52.0070208,66 L48.0163818,66 C47.464676,66 47.0187221,65.5560478 47.0187221,65.0090353 L47.0187221,63.0271058 L43.0280831,63.0271058 L43.0280831,65.0090353 C43.0280831,65.5560478 42.5821292,66 42.0304234,66 L38.0397845,66 C37.4880786,66 37.0421247,65.5560478 37.0421247,65.0090353 L37.0421247,62.9854853 C35.3840142,62.8408044 35.0468052,62.2026231 35.0468052,60.0542116 L35.0468052,29.3343049 C35.0468052,26.8063538 35.4937568,26.3614107 38.0397845,26.3614107 L52.0070208,26.3614107 C54.5530484,26.3614107 55,26.8063538 55,29.3343049 L55,29.3343049 Z M50.0117013,42.2168464 C50.0117013,42.762868 49.5647497,43.2078111 49.0140416,43.2078111 C48.4633334,43.2078111 48.0163818,42.762868 48.0163818,42.2168464 C48.0163818,41.6708248 48.4633334,41.2258817 49.0140416,41.2258817 C49.5647497,41.2258817 50.0117013,41.6708248 50.0117013,42.2168464 L50.0117013,42.2168464 Z M50.0117013,38.2529875 C50.0117013,38.799009 49.5647497,39.2439522 49.0140416,39.2439522 C48.4633334,39.2439522 48.0163818,38.799009 48.0163818,38.2529875 C48.0163818,37.7069659 48.4633334,37.2620227 49.0140416,37.2620227 C49.5647497,37.2620227 50.0117013,37.7069659 50.0117013,38.2529875 L50.0117013,38.2529875 Z M50.0117013,34.2891285 C50.0117013,34.8351501 49.5647497,35.2800933 49.0140416,35.2800933 C48.4633334,35.2800933 48.0163818,34.8351501 48.0163818,34.2891285 C48.0163818,33.743107 48.4633334,33.2981638 49.0140416,33.2981638 C49.5647497,33.2981638 50.0117013,33.743107 50.0117013,34.2891285 L50.0117013,34.2891285 Z M40.0351039,35.2800933 L47.0187221,35.2800933 L47.0187221,33.2981638 L40.0351039,33.2981638 L40.0351039,35.2800933 Z M40.0351039,43.2078111 L47.0187221,43.2078111 L47.0187221,41.2258817 L40.0351039,41.2258817 L40.0351039,43.2078111 Z M40.0351039,39.2439522 L47.0187221,39.2439522 L47.0187221,37.2620227 L40.0351039,37.2620227 L40.0351039,39.2439522 Z M31.1289954,36.271058 L34.0002602,36.271058 L34.0002602,38.2529875 L31.0352154,38.2529875 C30.9753558,38.2529875 30.9144986,38.2480326 30.8556367,38.2361411 C26.735302,37.4849898 25.2747281,34.2296706 25.0771915,32.6134072 C24.4975512,27.8092101 27.303968,25.5567473 29.4259903,24.8125328 C29.3771049,22.5184494 30.3149051,19.9825707 31.9351045,18.1354124 C33.1891628,16.7054503 35.4388855,15.000991 39.0284653,15 C44.5036219,15 46.8790497,18.4733314 47.8208405,20.5979598 C49.3063559,19.6605071 50.9205693,20.0420286 51.0073657,20.0638298 C54.094125,20.6554357 54.9610913,23.7868843 54.9800468,25.3585544 L52.9847273,25.3823375 C52.9837297,25.2673856 52.8979309,22.4441271 50.5753791,21.9981929 C50.3848261,21.9545905 49.053948,21.6959487 48.2238951,22.9435733 C48.0004193,23.2805013 47.5993601,23.4469834 47.1973032,23.3696881 C46.799237,23.290411 46.4899624,22.98123 46.4131426,22.585835 C46.3672503,22.3598951 45.206972,16.9819295 39.0284653,16.9819295 C36.1891256,16.9819295 34.4212726,18.316759 33.4395754,19.4375401 C31.7704907,21.3401924 31.247717,23.8126494 31.4711927,25.4180122 C31.5450196,25.9461964 31.1848644,26.437715 30.6571024,26.5298747 C30.2311017,26.6091519 26.4649362,27.4593996 27.0585437,32.3765666 C27.0755039,32.5004372 27.5314344,35.567473 31.1289954,36.271058 L31.1289954,36.271058 Z" id="AWS-Outposts_Icon_64_Squid" fill="#FFFFFF"></path>
    </g>
</svg>

<svg xmlns="http://www.w3.org/2000/svg" width="80" height="80"><defs><linearGradient id="a" x1="0%" x2="100%" y1="100%" y2="0%"><stop offset="0%" stop-color="#C8511B"/><stop offset="100%" stop-color="#F90"/></linearGradient></defs><g fill="none" fill-rule="evenodd"><path fill="url(#a)" d="M0 0h80v80H0z"/><path fill="#FFF" d="M53.005 29.334c0-.366 0-.742-.02-.973-.232-.018-.61-.018-.978-.018H38.04c-.368 0-.746 0-.979.018-.019.231-.019.607-.019.973v30.72c0 .367 0 .742.02.973.232.018.61.018.978.018H52.007c.368 0 .746 0 .979-.018.019-.23.019-.606.019-.973v-30.72Zm-3.991 34.684h1.995v-.99h-1.995v.99Zm-9.977 0h1.996v-.99h-1.996v.99ZM55 29.334v30.72c0 2.149-.337 2.787-1.995 2.931v2.024a.994.994 0 0 1-.998.991h-3.99a.994.994 0 0 1-.998-.991v-1.982h-3.99v1.982a.994.994 0 0 1-.999.991h-3.99a.994.994 0 0 1-.998-.991v-2.024c-1.658-.144-1.995-.782-1.995-2.93v-30.72c0-2.529.447-2.974 2.993-2.974h13.967c2.546 0 2.993.445 2.993 2.973Zm-4.988 12.883a.995.995 0 0 1-.998.99.995.995 0 0 1-.998-.99c0-.546.447-.991.998-.991.55 0 .998.445.998.99Zm0-3.964a.995.995 0 0 1-.998.991.995.995 0 0 1-.998-.991c0-.546.447-.991.998-.991.55 0 .998.445.998.991Zm0-3.964a.995.995 0 0 1-.998.991.995.995 0 0 1-.998-.99c0-.547.447-.992.998-.992.55 0 .998.445.998.991Zm-9.977.991h6.984v-1.982h-6.984v1.982Zm0 7.928h6.984v-1.982h-6.984v1.982Zm0-3.964h6.984v-1.982h-6.984v1.982Zm-8.906-2.973H34v1.982h-2.965a.911.911 0 0 1-.18-.017c-4.12-.751-5.58-4.006-5.778-5.623-.58-4.804 2.227-7.056 4.349-7.8-.049-2.295.889-4.83 2.51-6.678 1.253-1.43 3.503-3.134 7.092-3.135 5.476 0 7.851 3.473 8.793 5.598 1.485-.937 3.1-.556 3.186-.534 3.087.591 3.954 3.723 3.973 5.295l-1.995.023c-.001-.115-.087-2.938-2.41-3.384-.19-.043-1.521-.302-2.351.946a.998.998 0 0 1-1.81-.358c-.047-.226-1.207-5.604-7.386-5.604-2.839 0-4.607 1.335-5.588 2.456-1.67 1.902-2.192 4.375-1.969 5.98a.991.991 0 0 1-.814 1.112c-.426.08-4.192.93-3.598 5.847.017.123.472 3.19 4.07 3.894Z"/></g></svg>
